icons/heart-2-line.svg

<svg viewBox="0 0 24 24" fill="currentColor" xmlns="http://www.w3.org/2000/svg">
    <path d="M20.2426 4.75736C22.5053 7.02472 22.583 10.637 20.4786 12.993L11.9999 21.485L3.52138 12.993C1.41705 10.637 1.49571 7.01901 3.75736 4.75736C6.02157 2.49315 9.64519 2.41687 12.001 4.52853C14.35 2.42 17.98 2.49 20.2426 4.75736ZM5.17157 6.17157C3.68183 7.66131 3.60704 10.0473 4.97993 11.6232L11.9999 18.6543L19.0201 11.6232C20.3935 10.0467 20.319 7.66525 18.827 6.1701C17.3397 4.67979 14.9458 4.60806 13.3743 5.98376L9.17157 10.1869L7.75736 8.77264L10.582 5.946L10.5002 5.87701C8.92545 4.61197 6.62322 4.71993 5.17157 6.17157Z"/>
</svg>

<svg xmlns="http://www.w3.org/2000/svg" viewBox="0 0 24 24">
    <g>
        <path fill="none" d="M0 0H24V24H0z"/>
        <path d="M20.243 4.757c2.262 2.268 2.34 5.88.236 8.236l-8.48 8.492-8.478-8.492c-2.104-2.356-2.025-5.974.236-8.236 2.265-2.264 5.888-2.34 8.244-.228 2.349-2.109 5.979-2.039 8.242.228zM5.172 6.172c-1.49 1.49-1.565 3.875-.192 5.451L12 18.654l7.02-7.03c1.374-1.577 1.299-3.959-.193-5.454-1.487-1.49-3.881-1.562-5.453-.186l-4.202 4.203-1.415-1.414 2.825-2.827-.082-.069c-1.575-1.265-3.877-1.157-5.328.295z"/>
    </g>
</svg>
